Newaita/actions/24/archive-remove.svg

<svg height="24" viewBox="0 0 24 24" width="24" xmlns="http://www.w3.org/2000/svg"><g fill="#424242"><path d="m8.929688 9.613281v4.960938c0 .277343-.222657.496093-.496094.496093h-.992188c-.273437 0-.496094-.21875-.496094-.496093v-4.960938c0-.273437.222657-.496093.496094-.496093h.992188c.273437 0 .496094.222656.496094.496093zm0 0"/><path d="m15.378906 9.117188c-.273437 0-.496094.222656-.496094.496093v3.472657h1.984376v-3.472657c0-.273437-.21875-.496093-.496094-.496093zm0 0"/><path d="m2.976562 11.597656h17.863282v.992188h-17.863282zm0 0"/></g><path d="m21.832031 18.046875v.992187c0 .277344-.222656.496094-.496093.496094h-5.957032c-.273437 0-.496094-.21875-.496094-.496094v-.992187c0-.273437.222657-.496094.496094-.496094h5.957032c.273437 0 .496093.222657.496093.496094zm0 0" fill="#f44336"/><path d="m3.96875 2.171875c-1.097656 0-1.984375.886719-1.984375 1.984375v15.875c0 1.101562.886719 1.988281 1.984375 1.988281h8.929688v-1.988281h-7.9375c-.550782 0-.992188-.441406-.992188-.992188v-13.890624c0-.550782.441406-.992188.992188-.992188h13.890624c.550782 0 .992188.441406.992188.992188v7.9375h1.988281v-8.929688c0-1.097656-.886719-1.984375-1.988281-1.984375zm0 0" fill="#424242"/></svg>

<svg xmlns="http://www.w3.org/2000/svg" xmlns:xlink="http://www.w3.org/1999/xlink" width="24px" height="24px" viewBox="0 0 24 24" version="1.1">
<g id="surface1">
     <defs>
  <style id="current-color-scheme" type="text/css">
   .ColorScheme-Text { color:#424242; } .ColorScheme-Highlight { color:#eeeeee; }
  </style>
 </defs>
<path style="fill:currentColor" class="ColorScheme-Text" d="M 8.929688 9.613281 L 8.929688 14.574219 C 8.929688 14.851562 8.707031 15.070312 8.433594 15.070312 L 7.441406 15.070312 C 7.167969 15.070312 6.945312 14.851562 6.945312 14.574219 L 6.945312 9.613281 C 6.945312 9.339844 7.167969 9.117188 7.441406 9.117188 L 8.433594 9.117188 C 8.707031 9.117188 8.929688 9.339844 8.929688 9.613281 Z M 8.929688 9.613281 "/>
     <defs>
  <style id="current-color-scheme" type="text/css">
   .ColorScheme-Text { color:#424242; } .ColorScheme-Highlight { color:#eeeeee; }
  </style>
 </defs>
<path style="fill:currentColor" class="ColorScheme-Text" d="M 15.378906 9.117188 C 15.105469 9.117188 14.882812 9.339844 14.882812 9.613281 L 14.882812 13.085938 L 16.867188 13.085938 L 16.867188 9.613281 C 16.867188 9.339844 16.648438 9.117188 16.371094 9.117188 Z M 15.378906 9.117188 "/>
     <defs>
  <style id="current-color-scheme" type="text/css">
   .ColorScheme-Text { color:#424242; } .ColorScheme-Highlight { color:#eeeeee; }
  </style>
 </defs>
<path style="fill:currentColor" class="ColorScheme-Text" d="M 2.976562 11.597656 L 20.839844 11.597656 L 20.839844 12.589844 L 2.976562 12.589844 Z M 2.976562 11.597656 "/>
<path style=" stroke:none;fill-rule:nonzero;fill:rgb(95.686275%,26.274511%,21.176471%);fill-opacity:1;" d="M 21.832031 18.046875 L 21.832031 19.039062 C 21.832031 19.316406 21.609375 19.535156 21.335938 19.535156 L 15.378906 19.535156 C 15.105469 19.535156 14.882812 19.316406 14.882812 19.039062 L 14.882812 18.046875 C 14.882812 17.773438 15.105469 17.550781 15.378906 17.550781 L 21.335938 17.550781 C 21.609375 17.550781 21.832031 17.773438 21.832031 18.046875 Z M 21.832031 18.046875 "/>
     <defs>
  <style id="current-color-scheme" type="text/css">
   .ColorScheme-Text { color:#424242; } .ColorScheme-Highlight { color:#eeeeee; }
  </style>
 </defs>
<path style="fill:currentColor" class="ColorScheme-Text" d="M 3.96875 2.171875 C 2.871094 2.171875 1.984375 3.058594 1.984375 4.15625 L 1.984375 20.03125 C 1.984375 21.132812 2.871094 22.019531 3.96875 22.019531 L 12.898438 22.019531 L 12.898438 20.03125 L 4.960938 20.03125 C 4.410156 20.03125 3.96875 19.589844 3.96875 19.039062 L 3.96875 5.148438 C 3.96875 4.597656 4.410156 4.15625 4.960938 4.15625 L 18.851562 4.15625 C 19.402344 4.15625 19.84375 4.597656 19.84375 5.148438 L 19.84375 13.085938 L 21.832031 13.085938 L 21.832031 4.15625 C 21.832031 3.058594 20.945312 2.171875 19.84375 2.171875 Z M 3.96875 2.171875 "/>
</g>
</svg>
